symbolic/24x24/apps/org.gabmus.hydrapaper.svg

<svg xmlns="http://www.w3.org/2000/svg" width="24" height="24" version="1">
 <path style="opacity:.2" d="m19 9.0000001v-5.6875001c0-0.450125-0.3791-0.8125-0.85-0.8125h-15.3c-0.4709 0-0.85 0.362375-0.85 0.8125v11.375c0 0.450125 0.3791 0.8125 0.85 0.8125h9.35z"/>
 <path style="opacity:.2" d="M 21,11.759259 V 6.3125 C 21,5.862375 20.6209,5.5 20.15,5.5 H 4.85 C 4.3791,5.5 4,5.862375 4,6.3125 v 11.375 C 4,18.137625 4.3791,18.5 4.85,18.5 H 14 Z"/>
 <path style="opacity:.2" d="m23 14.5v-5.1875c0-0.450125-0.3791-0.8125-0.85-0.8125h-15.3c-0.4709 0-0.85 0.362375-0.85 0.8125v11.375c0 0.450125 0.3791 0.8125 0.85 0.8125h9.15z"/>
 <path style="fill:#ff9212" d="M 19,8.5000001 V 2.8125 C 19,2.362375 18.6209,2 18.15,2 H 2.85 C 2.3791,2 2,2.362375 2,2.8125 v 11.375 C 2,14.637625 2.3791,15 2.85,15 h 9.35 z"/>
 <path style="opacity:.3" d="m17 9.179154v-5.179154h-13v9h8.863323z"/>
 <path style="fill:#cfff3d" d="M 21,11.259259 V 5.8125 C 21,5.362375 20.6209,5 20.15,5 H 4.85 C 4.3791,5 4,5.362375 4,5.8125 v 11.375 C 4,17.637625 4.3791,18 4.85,18 H 14 Z"/>
 <path style="opacity:.3" d="m19 12.179154v-5.179154h-13v9h8.863323z"/>
 <path style="fill:#39ddff" d="M 23,14 V 8.8125 C 23,8.362375 22.6209,8 22.15,8 H 6.85 C 6.3791,8 6,8.362375 6,8.8125 v 11.375 C 6,20.637625 6.3791,21 6.85,21 H 16 Z"/>
 <path style="opacity:.3" d="m21 15.179154v-5.179154h-13v9h8.863323z"/>
 <path style="fill:#93edff" d="m23 14h-6.125c-0.483262 0-0.875 0.391755-0.875 0.875v6.125z"/>
 <path style="fill:#ffffff;opacity:.2" d="m2.8496094 2c-0.4709 0-0.8496094 0.362375-0.8496094 0.8125v0.5c0-0.450125 0.3787094-0.8125 0.8496094-0.8125h15.300782c0.4709 0 0.849609 0.362375 0.849609 0.8125v-0.5c0-0.450125-0.378709-0.8125-0.849609-0.8125h-15.300782z"/>
 <path style="fill:#ffffff;opacity:.2" d="M 4.8496094,5 C 4.3787094,5 4,5.362375 4,5.8125 v 0.5 C 4,5.862375 4.3787094,5.5 4.8496094,5.5 H 20.150391 C 20.621291,5.5 21,5.862375 21,6.3125 v -0.5 C 21,5.362375 20.621291,5 20.150391,5 Z"/>
 <path style="fill:#ffffff;opacity:.2" d="M 6.8496094,8 C 6.3787094,8 6,8.362375 6,8.8125 v 0.5 C 6,8.862375 6.3787094,8.5 6.8496094,8.5 H 22.150391 C 22.621291,8.5 23,8.862375 23,9.3125 v -0.5 C 23,8.362375 22.621291,8 22.150391,8 Z"/>
 <path style="fill:#ffffff;opacity:.2" d="m16.875 14c-0.483262 0-0.875 0.391755-0.875 0.875v0.5c0-0.483245 0.391738-0.875 0.875-0.875h5.625l0.5-0.5z"/>
</svg>

<svg xmlns="http://www.w3.org/2000/svg" width="24" height="24" version="1"><path style="opacity:.2" d="M19 9V3.312c0-.45-.38-.812-.85-.812H2.85c-.47 0-.85.362-.85.812v11.375c0 .45.38.813.85.813h9.35z"/><path style="opacity:.2" d="M21 11.76V6.312c0-.45-.38-.813-.85-.813H4.85c-.47 0-.85.362-.85.813v11.375c0 .45.38.812.85.812H14z"/><path style="opacity:.2" d="M23 14.5V9.312c0-.45-.38-.812-.85-.812H6.85c-.47 0-.85.362-.85.813v11.374c0 .45.38.813.85.813H16z"/><path style="fill:#ff9212" d="M19 8.5V2.812c0-.45-.38-.812-.85-.812H2.85c-.47 0-.85.362-.85.813v11.374c0 .45.38.813.85.813h9.35z"/><path style="opacity:.3" d="M17 9.18V4H4v9h8.863z"/><path style="fill:#cfff3d" d="M21 11.26V5.812c0-.45-.38-.813-.85-.813H4.85c-.47 0-.85.362-.85.813v11.375c0 .45.38.812.85.812H14z"/><path style="opacity:.3" d="M19 12.18V7H6v9h8.863z"/><path style="fill:#39ddff" d="M23 14V8.812c0-.45-.38-.812-.85-.812H6.85c-.47 0-.85.362-.85.813v11.374c0 .45.38.813.85.813H16z"/><path style="opacity:.3" d="M21 15.18V10H8v9h8.863z"/><path style="fill:#93edff" d="M23 14h-6.125a.875.875 0 0 0-.875.875V21z"/><path style="fill:#fff;opacity:.2" d="M2.85 2c-.471 0-.85.362-.85.813v.5c0-.45.379-.813.85-.813h15.3c.471 0 .85.362.85.813v-.5c0-.45-.379-.813-.85-.813H2.85zM4.85 5c-.471 0-.85.362-.85.813v.5c0-.45.379-.813.85-.813h15.3c.471 0 .85.362.85.813v-.5c0-.45-.379-.813-.85-.813zM6.85 8c-.471 0-.85.362-.85.813v.5c0-.45.379-.813.85-.813h15.3c.471 0 .85.362.85.813v-.5c0-.45-.379-.813-.85-.813zM16.875 14a.875.875 0 0 0-.875.875v.5c0-.483.392-.875.875-.875H22.5l.5-.5z"/></svg>
